!!!!SEGMENT: pl-kozmzk--mzk-m-346--016_walczynski-franciszek--cantantibus-organis-largo.krn
!!!cenid: 18xx:2811
!!!COM: Walczyński, Franciszek
!!!COM-rismid: pe30021989
!!!CDT: ~1852-1937
!!!CNT: Polish
!!!GTL: Cantantibus organis op. 10
!!!OTL: 16. Largo
!!!PDT: 1898
!!!AGN: Secular
!!!SMS-siglum: PL-KOZmzk
!!!SMS-shelfmark: mzk/m/346
!!!SMS-shelfwork: 016 G
!!!SMS-variant:
!!!SMS-altvar:
!!!NIFC-rismid: 1001109086
!!!URL-scan: https://repozytorium.nifc.pl/islandora/object/pl-kozmzk%3A7453/datastream/PDF/view
!!!ONB-nifc:
!!!OMD:Largo.
**kern	**kern	**dynam
*part2	*part1	*part1
*staff2	*staff1	*
*Iorgan	*Iempty	*
*I"[Organo]	*	*
*clefF4	*clefG2	*
*k[f#c#]	*k[f#c#]	*
*D:	*D:	*
*M3/4	*M3/4	*
=1	=1	=1
*^	*^	*
[2.A/	(4D\	4dd/	4f#\	pp
.	2E\	4.cc#^/	[2g\	.
.	.	8cc#/	.	.
=2	=2	=2	=2	=2
2.A/]	4C#\	4ee/	4g\]	.
.	2D\)	4.dd^/	2f#\	.
.	.	8dd/	.	.
=3	=3	=3	=3	=3
!	!	!LO:TX:t=P:problem:pf się nie wyświetla	!	!
(2.A#X/	(2.F#\	(4.cc#/	(2.e\	pf
!	!	!	!	!LO:HP:a
.	.	8f#/L	.	<
.	.	8cc#/	.	.
.	.	8dd/J	.	[[
=4	=4	=4	=4	=4
!	!	!	!	!LO:HP:a
2B/)	2GZ\)	2b/)	2d\)	p >
4r	(8C#\L	4r	4ryy	]
.	8D\J)	.	.	.
=5	=5	=5	=5	=5
!	!	!LO:TX:t=P:problem:pf się nie wyświetla	!	!LO:DY:a
[2.B/	2.D#X\	(4.b/	[2.f#\	pf
.	.	8a/	.	.
.	.	8g/L	.	.
.	.	8f#/J	.	.
=6	=6	=6	=6	=6
4B/_	[4E\	(4a/)	(4f#\]	.
8B/]	8E\]	8g/L)	8e\)	.
8rA	8rBB	8B'/	8r	.
4rA	4rBB	8c#'/	4r	.
.	.	8d'/J	.	.
=7	=7	=7	=7	=7
*	*	*	*	*^
!LO:TX:b:i:t=Ped.	!	!	!	!LO:DY:b=2:rj	!
8r	2.AA\	(2f#/	(2d\	pp	pp >
(8A/	.	.	.	.	.
8G#X/L	.	.	.	.	.
8A/	.	.	.	.	.
!LO:TX:b:i:t=rit.	!	!	!	!	!
8Gn/	.	4e/	4c#\)	.	.
8A/J	.	.	.	.	.
=8	=8	=8	=8	=8	=8
2F#/)	2D\	2d/)	2d\	.	.
4rGG	4rA	4rd	4rcc	.	]
*	*	*	*	*v	*v
*	*	*v	*v	*
=9||	=9||	=9||	=9||
*	*^	*	*
!	!	!	!LO:TX:a:i:t=a tempo	!
8r	8ryy	2.rGG	[2f#/	fp
8A#X'/	8F#\	.	.	.
(8B/L	8G#X\L	.	.	.
8c#/J)	8A#\J	.	.	.
8d'/	8B\	.	8f#/L]	.
8r	8ryy	.	8g/J	.
*	*v	*v	*	*
=10	=10	=10	=10
8r	2.rGG	(>[2a/	.
8c#/ 8An'/	.	.	.
(8d/L 8B/	.	.	.
8e/J 8c#/)	.	.	.
8f#/ 8d'/	.	8a/L]	.
8r	.	16b/L	.
.	.	16cc#/JJ)	.
!!LO:PB:g=original
=11	=11	=11	=11
!	!	!	!LO:DY:a
8rA	4rGG	(>2dd/	f
8G#X/ 8E/	.	.	.
(8A/L 8F#/	4r	.	.
8B/J 8G#/)	.	.	.
8c#/L 8A/	8r	8cc#/L	.
!LO:TX:b:i:t=Ped.	!	!	!
8f#/J 8d/	8D\	8b/J	.
=12	=12	=12	=12
*	*	*^	*
8c#/L	4E\	8a/L	(8e\L	.
8B/J	.	8g#X/J	8d\J	.
8A/	8AA;\	8a;/)	8c#\)	.
!	!	!	!	!LO:DY:a
8B^/L	8r	8b^/L	8r	p
8Gn^/	4r	8gn^/	4r	.
8E^/J	.	8e^/J	.	.
=13	=13	=13	=13	=13
[2.A/	(4D\	4b/	4f#\	pp
.	2E\	4.cc#^/	2g\	.
.	.	8cc#/	.	.
=14	=14	=14	=14	=14
2A/]	4C#\	4ee/	4g\	.
.	4D\	4.dd^/	2f#\	.
4B/	4BB\)	.	.	.
.	.	8dd/	.	.
=15	=15	=15	=15	=15
(2A#X/	2.F#\	(4.ff#/	[2.f#\	fp
.	.	8ee/	.	.
8B/L	.	8dd/L	.	.
8e/J	.	8cc#/J	.	.
=16	=16	=16	=16	=16
2.d/)	(2B\	4ee/	2.f#\]	.
.	.	2dd/)	.	.
.	4An\)	.	.	.
=17	=17	=17	=17	=17
4B/	4G#X\	4dd/	4fn\	ff
4.d/	4.B^\	4.g#X^/	4.f\	.
8d/	8B\	8g#/	8f\	.
=18	=18	=18	=18	=18
2d/	2A\	2a/	2f#X\	>
4A/	4AA\	4f#/	[4d\	.
=19	=19	=19	=19	=19
(4B/	(2.AA\	(4g/	(2d\]	]
4A/	.	4f#/	.	.
4Gn/	.	4e/	8d\L	.
.	.	.	8c#\J	.
=20	=20	=20	=20	=20
2.F#/)	2.D\)	2.d/)	2.d\)	.
=21	=21	=21	=21	=21
!	!	!	!	!LO:DY:rj
[2.d/	2.r	(4.dd^/	4.b\	fp
.	.	8b/	8g\	.
.	.	8dd/L	8b\L	.
.	.	8b/J	8g\J	.
!!LO:LB:g=original
=22	=22	=22	=22	=22
2.d/]	2.r	2a/	2f#\	.
.	.	4f#/)	4d\	.
=23	=23	=23	=23	=23
!	!	!	!	!LO:DY:a:rj
[2.A/	(4AA\	(2a/	(4c#\	fp
.	4BB\	.	4d\	.
.	4C#\	4g/	4e\	.
=24	=24	=24	=24	=24
2.A/]	8.D\L	8.f#/L	2.d\)	.
.	16E\Jk	16g/Jk	.	.
.	2F#\)	2a/)	.	.
*v	*v	*	*	*
*	*v	*v	*
=25	=25	=25
!LO:TX:b:i:t=Ped.	!	!LO:DY:b=2:rj
[2.D\ 2.GG\	(>4.d</ 4.B</	fp
.	8B</ 8G</	.
.	8d</L 8B</	.
.	8B</J 8G</	.
=26	=26	=26
2.D\] 2.DD\	2A</ 2F#</	.
.	4F#</ 4D</)	.
=27	=27	=27
*^	*^	*
!	!	!	!	!LO:DY:a:rj
(4.F#/	2.BB\	(4.b/	2.d#X\	fp
8cn/	.	8a/	.	.
8B/L	.	8g/L	.	.
8A/J	.	8f#/J	.	.
=28	=28	=28	=28	=28
4.G/)	4.E\	4.g/)	4.e\	.
8r	8r	8B/	8r	.
4r	4r	8c#'/L	4r	.
.	.	8d'/J	.	.
=29	=29	=29	=29	=29
!	!	!	!	!LO:DY:b=2
(2A/	8r	(2f#/	2d\	pp >
!LO:TX:b:i:t=Ped.	!	!	!	!
.	(8AA\L	.	.	.
.	8GG#X\	.	.	.
.	8AA\J	.	.	.
4G/)	4AA\)	8e/L	4c#\	.
.	.	8f#/J	.	.
=30	=30	=30	=30	=30
(4F#/ 4D/	[2.D\ [2.DD\	[2.d/)	[2.d\	]
4G/ 4E/	.	.	.	.
4A/ 4F#/)	.	.	.	.
=31	=31	=31	=31	=31
8B-X/L 8G/	2.D\_ 2.DD\_	8d/L]	8d\L]	.
8B-/J 8G/	.	(8d/J	8d\J	.
2B-/ 2G/	.	4d/	[2d\	<
.	.	4e/	.	.
=32	=32	=32	=32	=32
2.A/	2.D\] 2.DD\];	2.f#/);	2.d\]	[[
*v	*v	*	*	*
*	*v	*v	*
==	==	==
*-	*-	*-
!!!system-decoration: {(s1,s2)}
!!!RDF**kern: Z = caesura
!!!EED: Andrzej Borzym
!!!EST: 2021-08-09
!!!RDF**kern: > = above
!!!RDF**kern: < = below
!!!ENC: Krzysztof Stępień
!!!END: 2021-07-27
